lib/flags/l/191.svg

<svg xmlns="http://www.w3.org/2000/svg" fill="none" viewBox="0 0 32 24"><mask id="191_svg__a" width="32" height="24" x="0" y="0" mask-type="alpha" maskUnits="userSpaceOnUse"><path fill="#fff" d="M0 0H32V24H0z"/></mask><g mask="url(#191_svg__a)"><path fill="#F7FCFF" fill-rule="evenodd" d="M0 0V24H32V0H0Z" clip-rule="evenodd"/><mask id="191_svg__b" width="32" height="24" x="0" y="0" mask-type="alpha" maskUnits="userSpaceOnUse"><path fill="#fff" fill-rule="evenodd" d="M0 0V24H32V0H0Z" clip-rule="evenodd"/></mask><g mask="url(#191_svg__b)"><path fill="#E31D1C" fill-rule="evenodd" d="M0 0V8H32V0H0Z" clip-rule="evenodd"/><path fill="#3D58DB" fill-rule="evenodd" d="M0 16V24H32V16H0Z" clip-rule="evenodd"/><path fill="#E31D1C" d="M10.076 6.397H21.476V10.397H10.076z"/><path fill="#F7FCFF" stroke="#E31D1C" stroke-width="1.125" d="M10.6522 8.95984H20.7807C20.7978 9.7288 20.803 11.0702 20.8029 12.3615C20.8028 13.1955 20.8006 13.9983 20.7984 14.5927C20.7973 14.8899 20.7962 15.135 20.7954 15.3057L20.7945 15.5033L20.7943 15.5318C20.7941 15.5329 20.794 15.5339 20.7938 15.535C20.7893 15.5616 20.7818 15.6035 20.7703 15.6584C20.7473 15.7685 20.7085 15.9301 20.6469 16.126C20.5231 16.5193 20.3101 17.0408 19.9552 17.5589C19.2607 18.5728 17.9998 19.6153 15.6497 19.6153C13.3028 19.6153 12.1029 18.5742 11.4643 17.5701C11.1363 17.0544 10.949 16.5347 10.8442 16.1417C10.7921 15.9462 10.7611 15.7847 10.7433 15.6748C10.7345 15.6198 10.729 15.578 10.7258 15.5514C10.7251 15.545 10.7244 15.5395 10.7239 15.5349L10.7234 15.4902L10.721 15.2939L10.7125 14.5853C10.7055 13.9944 10.6961 13.1958 10.6867 12.3648C10.6724 11.095 10.6582 9.75337 10.6522 8.95984ZM10.7222 15.5186C10.7222 15.5183 10.7222 15.5183 10.7222 15.5185L10.7222 15.5186Z"/><mask id="191_svg__c" width="12" height="13" x="10" y="8" mask-type="alpha" maskUnits="userSpaceOnUse"><path fill="#fff" stroke="#fff" stroke-width="1.125" d="M10.6522 8.95984H20.7807C20.7978 9.7288 20.803 11.0702 20.8029 12.3615C20.8028 13.1955 20.8006 13.9983 20.7984 14.5927C20.7973 14.8899 20.7962 15.135 20.7954 15.3057L20.7945 15.5033L20.7943 15.5318C20.7941 15.5329 20.794 15.5339 20.7938 15.535C20.7893 15.5616 20.7818 15.6035 20.7703 15.6584C20.7473 15.7685 20.7085 15.9301 20.6469 16.126C20.5231 16.5193 20.3101 17.0408 19.9552 17.5589C19.2607 18.5728 17.9998 19.6153 15.6497 19.6153C13.3028 19.6153 12.1029 18.5742 11.4643 17.5701C11.1363 17.0544 10.949 16.5347 10.8442 16.1417C10.7921 15.9462 10.7611 15.7847 10.7433 15.6748C10.7345 15.6198 10.729 15.578 10.7258 15.5514C10.7251 15.545 10.7244 15.5395 10.7239 15.5349L10.7234 15.4902L10.721 15.2939L10.7125 14.5853C10.7055 13.9944 10.6961 13.1958 10.6867 12.3648C10.6724 11.095 10.6582 9.75337 10.6522 8.95984ZM10.7222 15.5186C10.7222 15.5183 10.7222 15.5183 10.7222 15.5185L10.7222 15.5186Z"/></mask><g mask="url(#191_svg__c)"><path fill="#F50100" fill-rule="evenodd" d="M10.4984 9.03992H12.6078V11.1818H10.4984V9.03992ZM14.7172 11.1818H12.6078V13.3237H10.4984V15.4656H12.6078V17.6075H10.4984V19.7494H12.6078V17.6075H14.7172V19.7494H16.8265V17.6075H18.9359V19.7494H21.0453V17.6075H18.9359V15.4656H21.0453V13.3237H18.9359V11.1818H21.0453V9.03992H18.9359V11.1818H16.8265V9.03992H14.7172V11.1818ZM14.7172 13.3237V11.1818H16.8265V13.3237H14.7172ZM14.7172 15.4656V13.3237H12.6078V15.4656H14.7172ZM16.8265 15.4656V17.6075H14.7172V15.4656H16.8265ZM16.8265 15.4656V13.3237H18.9359V15.4656H16.8265Z" clip-rule="evenodd"/></g><path fill="#56C6F5" fill-rule="evenodd" stroke="#fff" stroke-width=".5" d="M10.453 8.16255C10.453 8.16255 11.1055 7.81405 11.6619 7.63445C12.2184 7.45485 12.6583 7.35673 12.6583 7.35673L11.8303 4.30464L10.172 3.68506L9.23279 5.23316L10.453 8.16255Z" clip-rule="evenodd"/><path fill="#fff" d="M10.181 6.4907L10.3716 6.39884C10.5684 6.81976 10.8278 6.94977 11.1833 6.81708C11.5465 6.68155 11.6945 6.42526 11.6423 6.01894L11.8514 5.99121C11.9163 6.49558 11.7129 6.84763 11.2561 7.01813C10.7916 7.19147 10.4221 7.00625 10.181 6.4907Z"/><path fill="#FECA00" fill-rule="evenodd" d="M10.6323 5.54176L10.4501 5.65212C10.4098 5.67654 10.3597 5.64145 10.3688 5.59521L10.4102 5.38628L10.2236 5.28368C10.1823 5.26098 10.1876 5.20003 10.2322 5.18485L10.4339 5.11622L10.4294 4.90327C10.4284 4.85615 10.4838 4.8303 10.5193 4.86134L10.6795 5.00166L10.8617 4.8913C10.902 4.86688 10.9522 4.90198 10.943 4.94821L10.9016 5.15715L11.0883 5.25974C11.1296 5.28244 11.1242 5.3434 11.0796 5.35858L10.878 5.4272L10.8825 5.64015C10.8835 5.68727 10.828 5.71313 10.7925 5.68208L10.6323 5.54176Z" clip-rule="evenodd"/><path fill="#56C6F5" fill-rule="evenodd" stroke="#fff" stroke-width=".5" d="M14.5407 7.07575C14.5407 7.07575 15.0971 7.0261 15.6817 7.03746C16.2664 7.04881 16.7609 7.05297 16.7609 7.05297L17.0465 4.04349L15.7942 2.9121L14.4021 4.07008L14.5407 7.07575Z" clip-rule="evenodd"/><path fill="#FECA00" fill-rule="evenodd" d="M15.7501 6.58475C16.2325 6.58475 16.2787 6.06379 16.2787 5.7089 16.1553 5.51207 16.1802 5.37122 15.7848 5.37122 15.3895 5.37122 15.3444 5.49068 15.229 5.7089 15.229 6.06379 15.2678 6.58475 15.7501 6.58475zM16.293 5.11282C16.7753 5.11282 16.8215 4.59186 16.8215 4.23698 16.6982 4.04015 16.723 3.89929 16.3277 3.89929 15.9323 3.89929 15.8872 4.01875 15.7719 4.23698 15.7719 4.59186 15.8106 5.11282 16.293 5.11282zM15.2383 5.11282C15.7206 5.11282 15.7668 4.59186 15.7668 4.23698 15.6435 4.04015 15.6683 3.89929 15.273 3.89929 14.8776 3.89929 14.8325 4.01875 14.7172 4.23698 14.7172 4.59186 14.7559 5.11282 15.2383 5.11282z" clip-rule="evenodd"/><path fill="#2E42A5" stroke="#fff" stroke-width=".5" d="M12.4446 7.60484L12.3726 7.36014L11.506 4.4164L11.465 4.2769L11.5659 4.17224L12.8044 2.88833L12.9537 2.73352L13.1291 2.85806L14.4918 3.82587L14.5862 3.89289L14.5961 4.00821L14.8484 6.93263L14.8709 7.19317L14.6096 7.2039L14.6096 7.2039L14.6096 7.2039L14.6093 7.20391L14.6082 7.20396L14.6037 7.20415L14.5857 7.20495L14.5179 7.20825C14.46 7.21122 14.3786 7.21573 14.2853 7.2219C14.0973 7.23434 13.8664 7.25318 13.6811 7.27891C13.5042 7.3035 13.2591 7.36417 13.0501 7.42171C12.9474 7.44999 12.8565 7.47665 12.7912 7.49623C12.7586 7.50601 12.7326 7.514 12.7147 7.51952L12.6944 7.52583L12.6893 7.52743L12.6881 7.52781L12.6878 7.52789L12.6878 7.5279L12.4446 7.60484ZM12.4446 7.60484L12.6878 7.5279L12.4446 7.60484Z"/><mask id="191_svg__d" width="5" height="6" x="11" y="2" mask-type="alpha" maskUnits="userSpaceOnUse"><path fill="#fff" stroke="#fff" stroke-width=".5" d="M12.4446 7.60484L12.3726 7.36014L11.506 4.4164L11.465 4.2769L11.5659 4.17224L12.8044 2.88833L12.9537 2.73352L13.1291 2.85806L14.4918 3.82587L14.5862 3.89289L14.5961 4.00821L14.8484 6.93263L14.8709 7.19317L14.6096 7.2039L14.6096 7.2039L14.6096 7.2039L14.6093 7.20391L14.6082 7.20396L14.6037 7.20415L14.5857 7.20495L14.5179 7.20825C14.46 7.21122 14.3786 7.21573 14.2853 7.2219C14.0973 7.23434 13.8664 7.25318 13.6811 7.27891C13.5042 7.3035 13.2591 7.36417 13.0501 7.42171C12.9474 7.44999 12.8565 7.47665 12.7912 7.49623C12.7586 7.50601 12.7326 7.514 12.7147 7.51952L12.6944 7.52583L12.6893 7.52743L12.6881 7.52781L12.6878 7.52789L12.6878 7.5279L12.4446 7.60484ZM12.4446 7.60484L12.6878 7.5279L12.4446 7.60484Z"/></mask><g fill="#C51918" mask="url(#191_svg__d)"><path d="M12.4364 6.63778 12.1859 6.0477C12.7239 5.8122 13.6328 5.66771 14.5891 5.61121L14.6259 6.25269C13.7368 6.30521 12.8958 6.4367 12.4364 6.63778zM12.0137 5.21042 11.7632 4.62034C12.3012 4.38484 13.4576 4.19419 14.414 4.1377L14.4507 4.77918C13.5617 4.8317 12.4731 5.00933 12.0137 5.21042z"/></g><path fill="#2E42A5" stroke="#fff" stroke-width=".5" d="M18.9687 7.6066L19.0367 7.35468L19.8324 4.40609L19.8682 4.27369L19.7757 4.1724L18.608 2.89333L18.4589 2.73002L18.2786 2.85806L16.9159 3.82587L16.8215 3.89289L16.8116 4.00821L16.5593 6.93263L16.5368 7.19317L16.7981 7.2039L16.7981 7.2039L16.7981 7.2039L16.7984 7.20391L16.7995 7.20396L16.804 7.20415L16.8219 7.20495L16.8898 7.20825C16.9477 7.21122 17.0291 7.21573 17.1224 7.2219C17.3104 7.23434 17.5413 7.25318 17.7266 7.27891C17.9035 7.3035 18.1486 7.36417 18.3575 7.42171C18.4603 7.44999 18.5512 7.47665 18.6165 7.49623C18.6491 7.50601 18.6751 7.514 18.693 7.51952L18.7133 7.52583L18.7184 7.52743L18.7196 7.52781L18.7199 7.52789L18.7199 7.5279L18.9687 7.6066ZM18.9687 7.6066L18.7199 7.5279L18.9687 7.6066Z"/><mask id="191_svg__e" width="5" height="6" x="16" y="2" mask-type="alpha" maskUnits="userSpaceOnUse"><path fill="#fff" stroke="#fff" stroke-width=".5" d="M18.9687 7.6066L19.0367 7.35468L19.8324 4.40609L19.8682 4.27369L19.7757 4.1724L18.608 2.89333L18.4589 2.73002L18.2786 2.85806L16.9159 3.82587L16.8215 3.89289L16.8116 4.00821L16.5593 6.93263L16.5368 7.19317L16.7981 7.2039L16.7981 7.2039L16.7981 7.2039L16.7984 7.20391L16.7995 7.20396L16.804 7.20415L16.8219 7.20495L16.8898 7.20825C16.9477 7.21122 17.0291 7.21573 17.1224 7.2219C17.3104 7.23434 17.5413 7.25318 17.7266 7.27891C17.9035 7.3035 18.1486 7.36417 18.3575 7.42171C18.4603 7.44999 18.5512 7.47665 18.6165 7.49623C18.6491 7.50601 18.6751 7.514 18.693 7.51952L18.7133 7.52583L18.7184 7.52743L18.7196 7.52781L18.7199 7.52789L18.7199 7.5279L18.9687 7.6066ZM18.9687 7.6066L18.7199 7.5279L18.9687 7.6066Z"/></mask><g fill-rule="evenodd" clip-rule="evenodd" mask="url(#191_svg__e)"><path fill="#FECA00" d="M18.3978 6.46648C18.3978 6.46648 18.6918 6.30285 18.7342 6.02697C18.7766 5.75109 19.2313 5.41129 19.0039 5.45173C18.7766 5.49217 18.9066 5.52376 18.5774 5.45173C18.2481 5.3797 17.822 5.33206 17.822 5.12967C17.822 4.92728 18.0338 4.76665 17.8607 4.76665C17.6875 4.76665 17.3182 4.5751 17.3923 4.72151C17.4665 4.86792 17.2217 4.70237 17.3441 5.00633C17.4665 5.3103 17.3182 5.61652 17.3923 5.6971C17.4665 5.77767 17.3441 6.17286 17.3441 6.17286C17.3441 6.17286 17.3891 6.31964 17.4677 6.09979C17.5464 5.87995 17.7185 5.72585 17.6325 5.91282C17.5464 6.09979 17.4366 6.54452 17.5345 6.46648C17.6325 6.38844 17.7298 6.17262 17.7298 6.09979C17.7298 6.02697 17.9769 5.74111 17.9769 5.95698C17.9769 6.17286 17.7444 6.34287 17.8607 6.34287C17.9769 6.34287 18.0421 6.38874 18.1152 6.17286C18.1882 5.95698 18.3657 5.81418 18.4385 5.95698C18.5113 6.09979 18.4952 6.09216 18.3978 6.27932C18.3005 6.46648 18.3978 6.46648 18.3978 6.46648Z"/><path fill="#C51918" d="M17.7072 4.86644L17.5978 4.68333C17.7942 4.56232 17.9745 4.53007 18.1328 4.59754C18.2049 4.62822 18.2591 4.66317 18.4005 4.76262L18.419 4.7756C18.5662 4.87885 18.6441 4.92091 18.6921 4.92091V5.1351C18.5823 5.1351 18.4873 5.08383 18.2991 4.95184L18.2804 4.93869C18.1531 4.84917 18.104 4.81752 18.0512 4.79505C17.9636 4.75773 17.8509 4.77788 17.7072 4.86644ZM17.3609 6.26338C17.423 6.26338 17.4734 6.21363 17.4734 6.15227C17.4734 6.0909 17.423 6.04116 17.3609 6.04116C17.2988 6.04116 17.2484 6.0909 17.2484 6.15227C17.2484 6.21363 17.2988 6.26338 17.3609 6.26338ZM17.6844 6.36646C17.6844 6.42782 17.634 6.47757 17.5719 6.47757C17.5097 6.47757 17.4594 6.42782 17.4594 6.36646C17.4594 6.30509 17.5097 6.25535 17.5719 6.25535C17.634 6.25535 17.6844 6.30509 17.6844 6.36646ZM17.9508 6.46931C18.0129 6.46931 18.0633 6.41956 18.0633 6.3582C18.0633 6.29683 18.0129 6.24709 17.9508 6.24709C17.8886 6.24709 17.8383 6.29683 17.8383 6.3582C17.8383 6.41956 17.8886 6.46931 17.9508 6.46931ZM18.4157 6.53602C18.4157 6.59738 18.3654 6.64713 18.3032 6.64713C18.2411 6.64713 18.1907 6.59738 18.1907 6.53602C18.1907 6.47465 18.2411 6.42491 18.3032 6.42491C18.3654 6.42491 18.4157 6.47465 18.4157 6.53602Z"/></g><path fill="#56C6F5" stroke="#fff" stroke-width=".5" d="M21.3524 8.18587L21.2444 8.4346L21.0053 8.30687L21.0053 8.30687L21.0052 8.30685L21.005 8.30673L21.0039 8.30611L20.9988 8.30343L20.9782 8.29264C20.9601 8.28315 20.9332 8.26927 20.8992 8.25199C20.8311 8.2174 20.7344 8.16935 20.6207 8.11582C20.3917 8.00794 20.1006 7.88113 19.8373 7.79616C19.5645 7.70813 19.3201 7.63998 19.144 7.59389C19.056 7.57086 18.9852 7.55339 18.9368 7.54173L18.8814 7.52866L18.8675 7.52546L18.8642 7.52471L18.8635 7.52455L18.8634 7.52453L18.8633 7.52452L18.8633 7.52452L18.8633 7.52452L18.6049 7.46687L18.6773 7.21216L19.5233 4.23627L19.5579 4.11469L19.6763 4.07045L21.3346 3.45087L21.5285 3.37843L21.6359 3.55538L22.5751 5.10349L22.6421 5.21405L22.5907 5.33269L21.3524 8.18587Z"/><mask id="191_svg__f" width="5" height="6" x="18" y="3" mask-type="alpha" maskUnits="userSpaceOnUse"><path fill="#fff" stroke="#fff" stroke-width=".5" d="M21.3524 8.18587L21.2444 8.4346L21.0053 8.30687L21.0053 8.30687L21.0052 8.30685L21.005 8.30673L21.0039 8.30611L20.9988 8.30343L20.9782 8.29264C20.9601 8.28315 20.9332 8.26927 20.8992 8.25199C20.8311 8.2174 20.7344 8.16935 20.6207 8.11582C20.3917 8.00794 20.1006 7.88113 19.8373 7.79616C19.5645 7.70813 19.3201 7.63998 19.144 7.59389C19.056 7.57086 18.9852 7.55339 18.9368 7.54173L18.8814 7.52866L18.8675 7.52546L18.8642 7.52471L18.8635 7.52455L18.8634 7.52453L18.8633 7.52452L18.8633 7.52452L18.8633 7.52452L18.6049 7.46687L18.6773 7.21216L19.5233 4.23627L19.5579 4.11469L19.6763 4.07045L21.3346 3.45087L21.5285 3.37843L21.6359 3.55538L22.5751 5.10349L22.6421 5.21405L22.5907 5.33269L21.3524 8.18587Z"/></mask><g mask="url(#191_svg__f)"><path fill="#FECA00" fill-rule="evenodd" d="M21.1274 5.08906L20.9854 5.24786C20.954 5.28299 20.8958 5.26409 20.8911 5.2172L20.8696 5.00529L20.6611 4.96175C20.615 4.95212 20.6022 4.89227 20.6405 4.8647L20.8132 4.74013L20.7467 4.53779C20.732 4.49302 20.7774 4.45208 20.8204 4.4714L21.0147 4.55874L21.1566 4.39994C21.188 4.3648 21.2462 4.38371 21.251 4.4306L21.2725 4.64251L21.481 4.68604C21.5271 4.69567 21.5399 4.75553 21.5016 4.78309L21.3289 4.90767L21.3954 5.11C21.4101 5.15477 21.3647 5.19571 21.3217 5.17639L21.1274 5.08906Z" clip-rule="evenodd"/><path fill="#E31D1C" d="M18.9951 6.48749L19.2075 5.65833C20.1483 5.90682 21.129 6.22531 21.8484 6.53328L21.5207 7.32276C20.841 7.03182 19.8985 6.72611 18.9951 6.48749Z"/><path fill="#fff" d="M19.2831 5.72186 19.3332 5.51379C20.2351 5.73761 21.1937 6.09474 21.8903 6.42736L21.8005 6.62119C21.1173 6.29496 20.1719 5.94243 19.2831 5.72186zM19.0157 6.57647 19.0658 6.36841C19.9677 6.59223 20.8013 6.89592 21.4979 7.22854L21.4082 7.42237C20.725 7.09614 19.9046 6.79705 19.0157 6.57647z"/><path fill="#272727" d="M19.4229 6.17485L19.616 6.08765C19.6973 6.27796 19.7977 6.31989 19.9656 6.23832C20.3621 6.04566 21.3457 6.31489 21.3457 6.67792C21.3457 6.81955 21.2636 6.90542 21.1383 6.90044C21.0676 6.89764 20.9921 6.86969 20.8813 6.81493C20.8679 6.80829 20.859 6.80384 20.8372 6.79276C20.7148 6.7303 20.7055 6.72574 20.6729 6.71399L20.7427 6.50934C20.7878 6.52562 20.7949 6.5291 20.931 6.59848C20.952 6.60915 20.9601 6.61328 20.9727 6.61948C21.0576 6.66146 21.1144 6.68247 21.1464 6.68374C21.1494 6.68386 21.1348 6.69916 21.1348 6.67792C21.1348 6.51819 20.3342 6.29906 20.0557 6.43439C19.7779 6.56935 19.5509 6.47454 19.4229 6.17485Z"/></g></g></g></svg>

<svg xmlns="http://www.w3.org/2000/svg" fill="none" viewBox="0 0 32 24"><g mask="url(#191_svg__HR_-_Croatia_(Hrvatska)"><path fill="#F7FCFF" fill-rule="evenodd" d="M0 0v24h32V0H0z" clip-rule="evenodd"/><g mask="url(#191_svg__HR_-_Croatia_(Hrvatska)"><path fill="#E31D1C" fill-rule="evenodd" d="M0 0v8h32V0H0z" clip-rule="evenodd"/><path fill="#3D58DB" fill-rule="evenodd" d="M0 16v8h32v-8H0z" clip-rule="evenodd"/><path fill="#E31D1C" d="M10.076 6.397h11.4v4h-11.4z"/><path fill="#F7FCFF" stroke="#E31D1C" stroke-width="1.125" d="M10.652 8.96h10.129c.017.769.022 2.11.022 3.401a638.27 638.27 0 01-.008 2.945v.226l-.001.003a4.943 4.943 0 01-.147.59 5.458 5.458 0 01-.692 1.434c-.694 1.014-1.955 2.056-4.305 2.056-2.347 0-3.547-1.04-4.186-2.045a5.166 5.166 0 01-.738-2.019l-.002-.016v-.045l-.003-.196-.008-.709-.026-2.22c-.015-1.27-.029-2.612-.035-3.405zm.07 6.558s0 0 0 0h0z"/><g mask="url(#191_svg__HR_-_Croatia_(Hrvatska)"><path fill="#F50100" fill-rule="evenodd" d="M10.498 9.04h2.11v2.142h-2.11V9.04zm4.22 2.142h-2.11v2.142h-2.11v2.142h2.11v2.142h-2.11v2.141h2.11v-2.141h2.11v2.141h2.108v-2.141h2.11v2.141h2.11v-2.141h-2.11v-2.142h2.11v-2.142h-2.11v-2.142h2.11V9.04h-2.11v2.142h-2.11V9.04h-2.109v2.142zm0 2.142v-2.142h2.108v2.142h-2.109zm0 2.142v-2.142h-2.11v2.142h2.11zm2.108 0v2.142h-2.109v-2.142h2.11zm0 0v-2.142h2.11v2.142h-2.11z" clip-rule="evenodd"/></g><path fill="#56C6F5" fill-rule="evenodd" stroke="#fff" stroke-width=".5" d="M10.453 8.163s.652-.349 1.209-.528c.556-.18.996-.278.996-.278l-.828-3.052-1.658-.62-.94 1.548 1.221 2.93z" clip-rule="evenodd"/><path fill="#fff" d="M10.181 6.49l.19-.091c.197.42.457.55.812.418.364-.135.511-.392.46-.798l.208-.028c.065.505-.138.857-.595 1.027-.464.174-.834-.012-1.075-.527z"/><path fill="#FECA00" fill-rule="evenodd" d="M10.632 5.542l-.182.11a.054.054 0 01-.081-.057l.041-.209-.186-.102a.054.054 0 01.008-.1l.202-.068-.005-.213a.054.054 0 01.09-.042l.16.14.183-.11c.04-.024.09.011.081.057l-.041.21.186.102a.054.054 0 01-.008.099l-.202.068.005.213a.054.054 0 01-.09.042l-.16-.14z" clip-rule="evenodd"/><path fill="#56C6F5" fill-rule="evenodd" stroke="#fff" stroke-width=".5" d="M14.54 7.076s.557-.05 1.142-.038c.584.01 1.079.015 1.079.015l.286-3.01-1.253-1.13-1.392 1.157.139 3.006z" clip-rule="evenodd"/><path fill="#FECA00" fill-rule="evenodd" d="M15.75 6.585c.483 0 .529-.521.529-.876-.124-.197-.099-.338-.494-.338-.396 0-.44.12-.556.338 0 .355.039.876.521.876zm.543-1.472c.482 0 .529-.521.529-.876-.124-.197-.099-.338-.494-.338-.396 0-.44.12-.556.338 0 .355.039.876.521.876zm-1.055 0c.483 0 .529-.521.529-.876-.123-.197-.099-.338-.494-.338s-.44.12-.556.338c0 .355.039.876.521.876z" clip-rule="evenodd"/><path fill="#2E42A5" stroke="#fff" stroke-width=".5" d="M12.445 7.605l-.072-.245-.867-2.944-.041-.14.1-.104 1.24-1.284.149-.154.175.124 1.363.968.094.067.01.115.252 2.925.023.26-.261.01h0l-.002.001h-.004l-.018.001-.068.003-.233.014a9.107 9.107 0 00-.604.057 5.563 5.563 0 00-.63.143 12.054 12.054 0 00-.336.098l-.02.006-.006.001h0-.001 0l-.243.078zm0 0l.243-.077-.243.077z"/><g fill="#C51918" mask="url(#191_svg__HR_-_Croatia_(Hrvatska)"><path d="M12.436 6.638l-.25-.59c.538-.236 1.447-.38 2.403-.437l.037.642c-.89.052-1.73.184-2.19.385zm-.422-1.428l-.25-.59c.537-.235 1.694-.426 2.65-.482l.037.641c-.89.053-1.978.23-2.437.431z"/></g><path fill="#2E42A5" stroke="#fff" stroke-width=".5" d="M18.969 7.607l.068-.252.795-2.949.036-.132-.092-.102-1.168-1.279-.15-.163-.18.128-1.362.968-.095.067-.01.115-.252 2.925-.022.26.261.01h0l.002.001h.004l.018.001.068.003.232.014c.188.012.42.031.605.057.177.025.422.085.63.143a11.92 11.92 0 01.336.098l.02.006.005.001h.002l.249.08zm0 0l-.25-.08.25.08z"/><g fill-rule="evenodd" clip-rule="evenodd" mask="url(#191_svg__HR_-_Croatia_(Hrvatska)"><path fill="#FECA00" d="M18.398 6.466s.294-.163.336-.439c.043-.276.497-.616.27-.575-.227.04-.097.072-.427 0-.329-.072-.755-.12-.755-.322 0-.203.212-.363.039-.363-.174 0-.543-.192-.469-.045.075.146-.17-.02-.048.284.122.304-.026.61.048.691.075.08-.048.476-.048.476s.045.147.124-.073c.078-.22.25-.374.165-.187-.087.187-.196.632-.098.553a.695.695 0 00.195-.366c0-.073.247-.359.247-.143s-.233.386-.116.386c.116 0 .181.046.254-.17.073-.216.25-.359.324-.216.072.143.056.135-.041.322-.098.187 0 .187 0 .187z"/><path fill="#C51918" d="M17.707 4.867l-.11-.184c.197-.12.377-.153.536-.085.072.03.126.065.268.165l.018.013c.147.103.225.145.273.145v.214c-.11 0-.205-.051-.393-.183l-.019-.013a1.312 1.312 0 00-.229-.144c-.087-.037-.2-.017-.344.072zm-.346 1.396c.062 0 .112-.05.112-.11a.112.112 0 00-.112-.112.112.112 0 00-.113.111c0 .062.05.111.113.111zm.323.104c0 .06-.05.11-.112.11a.112.112 0 01-.113-.11c0-.062.05-.112.113-.112.062 0 .112.05.112.112zm.267.102c.062 0 .112-.05.112-.11a.112.112 0 00-.112-.112.112.112 0 00-.113.111c0 .062.05.111.113.111zm.465.067c0 .061-.05.111-.113.111a.112.112 0 01-.112-.11.112.112 0 01.225-.001z"/></g><path fill="#56C6F5" stroke="#fff" stroke-width=".5" d="M21.352 8.186l-.108.249-.239-.128h0-.001l-.005-.003-.02-.011a7.39 7.39 0 00-.358-.177 6.985 6.985 0 00-.784-.32 13.041 13.041 0 00-.9-.254l-.056-.013-.014-.003-.003-.001h0l-.26-.058.073-.255.846-2.976.035-.121.118-.044 1.659-.62.194-.072.107.176.94 1.549.066.11-.051.119-1.239 2.853z"/><g mask="url(#191_svg__HR_-_Croatia_(Hrvatska)"><path fill="#FECA00" fill-rule="evenodd" d="M21.127 5.09l-.142.158a.054.054 0 01-.094-.03l-.021-.213-.209-.043a.054.054 0 01-.02-.097l.172-.125-.066-.202a.054.054 0 01.073-.067l.195.088.142-.159a.054.054 0 01.094.03l.021.213.209.043c.046.01.059.07.02.097l-.172.125.066.202a.054.054 0 01-.073.066l-.195-.087z" clip-rule="evenodd"/><path fill="#E31D1C" d="M18.995 6.488l.212-.83c.941.249 1.922.567 2.641.875l-.327.79c-.68-.291-1.623-.597-2.526-.835z"/><path fill="#fff" d="M19.283 5.722l.05-.208c.902.224 1.86.58 2.557.913l-.09.194a14.127 14.127 0 00-2.517-.899zm-.267.855l.05-.209a13.04 13.04 0 012.432.86l-.09.194a12.767 12.767 0 00-2.392-.845z"/><path fill="#272727" d="M19.423 6.175l.193-.087c.081.19.182.232.35.15.396-.192 1.38.077 1.38.44 0 .142-.082.228-.208.223a.66.66 0 01-.257-.086 4.297 4.297 0 01-.044-.022 1.315 1.315 0 00-.164-.079l.07-.205c.045.017.052.02.188.09l.042.02a.543.543 0 00.173.065c.003 0-.011.015-.011-.006 0-.16-.8-.379-1.08-.243-.277.134-.504.04-.632-.26z"/></g></g></g></svg>
